X: 37186
T: Sir Roger De Coverley
R: slip jig
M: 9/8
K: Dmajor
|:d2 d d2 B AFD|B2 e e2 d cBA|d2 d d2 B ABc|d2 d ded cBA:|
|:AFA BGB AFD|Bcd efd cBA|AFA BGB cAc|dAd ded cBA:|
|:agf gfe fed|cde efg g[fa][eb]|a2 f g2 e f2 d|ded d2 d c2 A:|

